X:1
T:The Dawning of the Day
M:C|
L:1/8
Q:80
C:Arr. by Kent Hiestand
S:March 2/4
K:HP
A/2B/2 |: \
{g}c{d}c{e}cB/2c/2 | \
{g}e{A}e{g}fe/2c/2 |
{d}A{d}c/2B/2{G}A{d}A | \
{GAG}A3e | \
{gfg}f3/2e/2{g}fa |
{gcd}c3/2B/2{d}A{d}c | \
{gef}ec{ag}ac | \
{gBd}B3e |
{gfg}f3/2e/2{g}fa | \
{gcd}c3/2B/2{d}A{d}c | \
{gef}ec{ag}ac |
{gBd}B3A/2B/2 | \
{g}c{d}c{e}cB/2c/2 | \
{g}e{A}e{g}fe/2c/2 |
{d}A{d}c/2B/2{G}A{d}A | \
{GAG}A3 :|
